;Generated with Cura_SteamEngine 15.01
; Default start code
G28 ; Home extruder
G90 ; Absolute positioning
M82 ; Extruder in absolute mode
G92 E0 ; Reset extruder position
M109 T0 S200
;Layer count: 167
;LAYER:0
M107
G0 F9000 X32.750 Y56.700 Z0.300
;TYPE:SKIRT
G1 F1800 X74.050 Y56.700 E2.06047
G1 X74.050 Y42.900 E2.74895
G1 X127.849 Y42.900 E5.43299
G1 X127.849 Y56.700 E6.12148
G1 X166.649 Y56.700 E8.05722
G1 X166.649 Y157.099 E13.06614
G1 X32.750 Y157.099 E19.74639
G1 X32.750 Y56.700 E24.75532
G1 F2400 E20.75532
G0 F9000 X36.550 Y60.500
;TYPE:WALL-INNER
G1 F2400 E24.75532
G1 F1800 X77.850 Y60.500 E26.81578
G1 X77.850 Y46.700 E27.50427
G1 X124.049 Y46.700 E29.80915
G1 X124.049 Y60.500 E30.49763
G1 X162.849 Y60.500 E32.43337
G1 X162.849 Y153.299 E37.06313
G1 X36.550 Y153.299 E43.36421
G1 X36.550 Y60.500 E47.99398
G0 F9000 X45.350 Y70.300
G1 F1800 X45.350 Y137.499 E51.34655
G1 X156.549 Y137.499 E56.89429
G1 X156.549 Y70.300 E60.24686
G1 X45.350 Y70.300 E65.79460
G0 F9000 X50.139 Y66.211
G1 F1800 X50.522 Y66.506 E65.81872
G1 X50.969 Y66.691 E65.84285
G1 X51.452 Y66.755 E65.86716
G1 X51.941 Y66.688 E65.89179
G1 X52.379 Y66.505 E65.91547
G1 X52.761 Y66.211 E65.93952
G1 X53.056 Y65.828 E65.96364
G1 X53.241 Y65.380 E65.98782
G1 X53.305 Y64.899 E66.01203
G1 X53.238 Y64.408 E66.03675
G1 X53.055 Y63.971 E66.06039
G1 X52.761 Y63.589 E66.08444
G1 X52.378 Y63.293 E66.10859
G1 X51.929 Y63.107 E66.13283
G1 X51.448 Y63.045 E66.15703
G1 X50.958 Y63.111 E66.18169
G1 X50.521 Y63.294 E66.20533
G1 X50.138 Y63.588 E66.22942
G1 X49.843 Y63.972 E66.25358
G1 X49.657 Y64.420 E66.27778
G1 X49.595 Y64.902 E66.30202
G1 X49.661 Y65.390 E66.32659
G1 X49.844 Y65.829 E66.35032
G1 X50.139 Y66.211 E66.37440
G0 F9000 X50.204 Y70.299
G0 X156.490 Y70.359
G0 X156.490 Y137.440
G0 X51.449 Y147.044
G1 F1800 X50.958 Y147.111 E66.39912
G1 X50.521 Y147.294 E66.42276
G1 X50.139 Y147.588 E66.44681
G1 X49.843 Y147.971 E66.47096
G1 X49.657 Y148.420 E66.49520
G1 X49.595 Y148.901 E66.51940
G1 X49.661 Y149.391 E66.54407
G1 X49.844 Y149.828 E66.56770
G1 X50.138 Y150.211 E66.59179
G1 X50.522 Y150.506 E66.61595
G1 X50.970 Y150.692 E66.64015
G1 X51.452 Y150.754 E66.66440
G1 X51.940 Y150.688 E66.68896
G1 X52.379 Y150.505 E66.71269
G1 X52.761 Y150.210 E66.73677
G1 X53.056 Y149.827 E66.76089
G1 X53.241 Y149.380 E66.78503
G1 X53.305 Y148.897 E66.80933
G1 X53.238 Y148.408 E66.83396
G1 X53.055 Y147.970 E66.85764
G1 X52.761 Y147.588 E66.88169
G1 X52.378 Y147.293 E66.90581
G1 X51.930 Y147.108 E66.92999
G1 X51.449 Y147.044 E66.95420
G0 F9000 X148.594 Y148.900
G1 F1800 X148.661 Y149.391 E66.97892
G1 X148.844 Y149.828 E67.00256
G1 X149.138 Y150.210 E67.02661
G1 X149.521 Y150.506 E67.05076
G1 X149.970 Y150.692 E67.07500
G1 X150.451 Y150.754 E67.09920
G1 X150.941 Y150.688 E67.12387
G1 X151.378 Y150.505 E67.14750
G1 X151.761 Y150.211 E67.17159
G1 X152.056 Y149.827 E67.19575
G1 X152.242 Y149.379 E67.21995
G1 X152.304 Y148.897 E67.24420
G1 X152.238 Y148.409 E67.26876
G1 X152.055 Y147.970 E67.29249
G1 X151.760 Y147.588 E67.31657
G1 X151.377 Y147.293 E67.34069
G1 X150.930 Y147.108 E67.36483
G1 X150.447 Y147.044 E67.38913
G1 X149.958 Y147.111 E67.41376
G1 X149.520 Y147.294 E67.43744
G1 X149.138 Y147.588 E67.46149
G1 X148.843 Y147.971 E67.48561
G1 X148.658 Y148.419 E67.50979
G1 X148.594 Y148.900 E67.53400
G0 F9000 X45.409 Y137.440
G0 X45.409 Y70.359
G0 X150.450 Y66.755
G1 F1800 X150.941 Y66.688 E67.55872
G1 X151.378 Y66.505 E67.58236
G1 X151.760 Y66.211 E67.60641
G1 X152.056 Y65.828 E67.63056
G1 X152.242 Y65.379 E67.65480
G1 X152.304 Y64.898 E67.67900
G1 X152.238 Y64.408 E67.70367
G1 X152.055 Y63.971 E67.72730
G1 X151.761 Y63.588 E67.75139
G1 X151.377 Y63.293 E67.77555
G1 X150.929 Y63.107 E67.79975
G1 X150.447 Y63.045 E67.82399
G1 X149.959 Y63.111 E67.84856
G1 X149.520 Y63.294 E67.87229
G1 X149.138 Y63.589 E67.89637
G1 X148.843 Y63.972 E67.92049
G1 X148.658 Y64.419 E67.94463
G1 X148.594 Y64.902 E67.96893
G1 X148.661 Y65.391 E67.99356
G1 X148.844 Y65.829 E68.01724
G1 X149.138 Y66.211 E68.04129
G1 X149.521 Y66.506 E68.06541
G1 X149.969 Y66.691 E68.08959
G1 X150.450 Y66.755 E68.11380
G0 F9000 X150.449 Y66.352
;TYPE:WALL-OUTER
G1 F1800 X150.835 Y66.299 E68.13324
G1 X151.175 Y66.156 E68.15164
G1 X151.475 Y65.926 E68.17050
G1 X151.707 Y65.626 E68.18942
G1 X151.852 Y65.275 E68.20836
G1 X151.901 Y64.899 E68.22728
G1 X151.849 Y64.514 E68.24666
G1 X151.706 Y64.174 E68.26507
G1 X151.476 Y63.873 E68.28397
G1 X151.175 Y63.642 E68.30289
G1 X150.825 Y63.497 E68.32180
G1 X150.448 Y63.448 E68.34076
G1 X150.064 Y63.500 E68.36009
G1 X149.723 Y63.643 E68.37854
G1 X149.423 Y63.874 E68.39743
G1 X149.192 Y64.174 E68.41632
G1 X149.047 Y64.524 E68.43522
G1 X148.997 Y64.901 E68.45420
G1 X149.050 Y65.285 E68.47354
G1 X149.193 Y65.626 E68.49198
G1 X149.423 Y65.926 E68.51084
G1 X149.723 Y66.157 E68.52973
G1 X150.074 Y66.302 E68.54868
G1 X150.449 Y66.352 E68.56755
G0 F9000 X150.410 Y66.649
G0 X156.149 Y70.400
G0 X156.149 Y70.700
G1 F1800 X45.750 Y70.700 E74.07538
G1 X45.750 Y137.099 E77.38804
G1 X156.149 Y137.099 E82.89587
G1 X156.149 Y70.700 E86.20853
G0 F9000 X156.149 Y70.400
G0 X163.039 Y60.400
G0 X163.249 Y60.100
G1 F1800 X163.249 Y153.699 E90.87820
G1 X36.150 Y153.699 E97.21920
G1 X36.150 Y60.100 E101.88887
G1 X77.450 Y60.100 E103.94934
G1 X77.450 Y46.300 E104.63782
G1 X124.449 Y46.300 E106.98261
G1 X124.449 Y60.100 E107.67110
G1 X163.249 Y60.100 E109.60684
G0 F9000 X163.039 Y60.400
G0 X156.490 Y137.440
G0 X150.941 Y147.221
G0 X150.825 Y147.497
G1 F1800 X150.448 Y147.447 E109.62581
G1 X150.064 Y147.500 E109.64515
G1 X149.723 Y147.643 E109.66360
G1 X149.423 Y147.873 E109.68246
G1 X149.192 Y148.173 E109.70135
G1 X149.047 Y148.524 E109.72029
G1 X148.997 Y148.899 E109.73917
G1 X149.050 Y149.285 E109.75861
G1 X149.193 Y149.625 E109.77701
G1 X149.423 Y149.925 E109.79587
G1 X149.723 Y150.157 E109.81479
G1 X150.074 Y150.302 E109.83373
G1 X150.450 Y150.351 E109.85265
G1 X150.835 Y150.299 E109.87203
G1 X151.175 Y150.156 E109.89044
G1 X151.476 Y149.926 E109.90934
G1 X151.707 Y149.625 E109.92826
G1 X151.852 Y149.275 E109.94717
G1 X151.901 Y148.898 E109.96613
G1 X151.849 Y148.514 E109.98547
G1 X151.706 Y148.173 E110.00391
G1 X151.475 Y147.873 E110.02280
G1 X151.175 Y147.642 E110.04169
G1 X150.825 Y147.497 E110.06059
G0 F9000 X150.941 Y147.221
G0 X53.199 Y148.937
G0 X52.902 Y148.898
G1 F1800 X52.849 Y148.514 E110.07993
G1 X52.706 Y148.173 E110.09838
G1 X52.476 Y147.873 E110.11724
G1 X52.176 Y147.642 E110.13613
G1 X51.825 Y147.497 E110.15508
G1 X51.450 Y147.447 E110.17395
G1 X51.064 Y147.500 E110.19339
G1 X50.724 Y147.643 E110.21179
G1 X50.424 Y147.873 E110.23065
G1 X50.192 Y148.173 E110.24957
G1 X50.047 Y148.524 E110.26852
G1 X49.998 Y148.900 E110.28744
G1 X50.050 Y149.285 E110.30682
G1 X50.193 Y149.625 E110.32522
G1 X50.423 Y149.926 E110.34412
G1 X50.724 Y150.157 E110.36305
G1 X51.074 Y150.302 E110.38195
G1 X51.451 Y150.351 E110.40092
G1 X51.835 Y150.299 E110.42025
G1 X52.176 Y150.156 E110.43870
G1 X52.476 Y149.925 E110.45759
G1 X52.707 Y149.625 E110.47648
G1 X52.852 Y149.275 E110.49538
G1 X52.902 Y148.898 E110.51435
G0 F9000 X53.199 Y148.937
G0 X52.949 Y137.497
G0 X45.409 Y137.440
G0 X45.409 Y70.359
G0 X51.412 Y66.649
G0 X51.451 Y66.352
G1 F1800 X51.835 Y66.299 E110.53369
G1 X52.176 Y66.156 E110.55214
G1 X52.476 Y65.926 E110.57100
G1 X52.707 Y65.626 E110.58989
G1 X52.852 Y65.275 E110.60883
G1 X52.902 Y64.900 E110.62771
G1 X52.849 Y64.514 E110.64715
G1 X52.706 Y64.174 E110.66555
G1 X52.476 Y63.874 E110.68441
G1 X52.176 Y63.642 E110.70333
G1 X51.825 Y63.497 E110.72228
G1 X51.449 Y63.448 E110.74119
G1 X51.064 Y63.500 E110.76058
G1 X50.724 Y63.643 E110.77898
G1 X50.423 Y63.873 E110.79788
G1 X50.192 Y64.174 E110.81681
G1 X50.047 Y64.524 E110.83571
G1 X49.998 Y64.901 E110.85467
G1 X50.050 Y65.285 E110.87401
G1 X50.193 Y65.626 E110.89245
G1 X50.424 Y65.926 E110.91134
G1 X50.724 Y66.157 E110.93023
G1 X51.074 Y66.302 E110.94913
G1 X51.451 Y66.352 E110.96811
G0 F9000 X51.323 Y66.879
;TYPE:SKIN
G1 F1800 X54.602 Y70.159 E111.19949
G0 F9000 X54.037 Y70.159
G1 F1800 X50.544 Y66.666 E111.44594
G0 F9000 X49.681 Y65.803
G1 F1800 X44.518 Y60.640 E111.81022
G0 F9000 X45.083 Y60.640
G1 F1800 X49.470 Y65.026 E112.11971
G0 F9000 X49.507 Y64.498
G1 F1800 X45.649 Y60.640 E112.39192
G0 F9000 X46.215 Y60.640
G1 F1800 X49.648 Y64.073 E112.63413
G0 F9000 X49.860 Y63.720
G1 F1800 X46.780 Y60.640 E112.85144
G0 F9000 X47.346 Y60.640
G1 F1800 X50.126 Y63.419 E113.04755
G0 F9000 X50.446 Y63.174
G1 F1800 X47.912 Y60.640 E113.22634
G0 F9000 X48.477 Y60.640
G1 F1800 X50.843 Y63.005 E113.39324
G0 F9000 X51.322 Y62.919
G1 F1800 X49.043 Y60.640 E113.55403
G0 F9000 X49.609 Y60.640
G1 F1800 X51.934 Y62.965 E113.71808
G0 F9000 X53.379 Y64.410
G1 F1800 X59.128 Y70.159 E114.12370
G0 F9000 X59.693 Y70.159
G1 F1800 X50.174 Y60.640 E114.79532
G0 F9000 X50.740 Y60.640
G1 F1800 X60.259 Y70.159 E115.46693
G0 F9000 X60.825 Y70.159
G1 F1800 X51.306 Y60.640 E116.13855
G0 F9000 X51.871 Y60.640
G1 F1800 X61.391 Y70.159 E116.81020
G0 F9000 X61.956 Y70.159
G1 F1800 X52.437 Y60.640 E117.48182
G0 F9000 X53.003 Y60.640
G1 F1800 X62.522 Y70.159 E118.15344
G0 F9000 X63.088 Y70.159
G1 F1800 X53.568 Y60.640 E118.82509
G0 F9000 X54.134 Y60.640
G1 F1800 X63.653 Y70.159 E119.49670
G0 F9000 X64.219 Y70.159
G1 F1800 X54.700 Y60.640 E120.16832
G0 F9000 X55.266 Y60.640
G1 F1800 X64.785 Y70.159 E120.83994
G0 F9000 X65.350 Y70.159
G1 F1800 X55.831 Y60.640 E121.51155
G0 F9000 X56.397 Y60.640
G1 F1800 X65.916 Y70.159 E122.18317
G0 F9000 X66.482 Y70.159
G1 F1800 X56.963 Y60.640 E122.85479
G0 F9000 X57.528 Y60.640
G1 F1800 X67.047 Y70.159 E123.52641
G0 F9000 X67.613 Y70.159
G1 F1800 X58.094 Y60.640 E124.19802
G0 F9000 X58.660 Y60.640
G1 F1800 X68.179 Y70.159 E124.86964
G0 F9000 X68.744 Y70.159
G1 F1800 X59.225 Y60.640 E125.54126
G0 F9000 X59.791 Y60.640
G1 F1800 X69.310 Y70.159 E126.21287
G0 F9000 X69.876 Y70.159
G1 F1800 X60.357 Y60.640 E126.88449
G0 F9000 X60.922 Y60.640
G1 F1800 X70.441 Y70.159 E127.55611
G0 F9000 X71.007 Y70.159
G1 F1800 X61.488 Y60.640 E128.22772
G0 F9000 X62.054 Y60.640
G1 F1800 X71.573 Y70.159 E128.89934
G0 F9000 X72.139 Y70.159
G1 F1800 X62.619 Y60.640 E129.57099
G0 F9000 X63.185 Y60.640
G1 F1800 X72.704 Y70.159 E130.24261
G0 F9000 X73.270 Y70.159
G1 F1800 X63.751 Y60.640 E130.91423
G0 F9000 X64.317 Y60.640
G1 F1800 X73.836 Y70.159 E131.58584
G0 F9000 X74.401 Y70.159
G1 F1800 X64.882 Y60.640 E132.25746
G0 F9000 X65.448 Y60.640
G1 F1800 X74.967 Y70.159 E132.92908
G0 F9000 X75.533 Y70.159
G1 F1800 X66.014 Y60.640 E133.60069
G0 F9000 X66.579 Y60.640
G1 F1800 X76.098 Y70.159 E134.27231
G0 F9000 X76.664 Y70.159
G1 F1800 X67.145 Y60.640 E134.94393
G0 F9000 X67.711 Y60.640
G1 F1800 X77.230 Y70.159 E135.61554
G0 F9000 X77.795 Y70.159
G1 F1800 X68.276 Y60.640 E136.28716
G0 F9000 X68.842 Y60.640
G1 F1800 X78.361 Y70.159 E136.95878
G0 F9000 X78.927 Y70.159
G1 F1800 X69.408 Y60.640 E137.63039
G0 F9000 X69.973 Y60.640
G1 F1800 X79.492 Y70.159 E138.30201
G0 F9000 X80.058 Y70.159
G1 F1800 X70.539 Y60.640 E138.97363
G0 F9000 X71.105 Y60.640
G1 F1800 X80.624 Y70.159 E139.64525
G0 F9000 X81.190 Y70.159
G1 F1800 X71.670 Y60.640 E140.31690
G0 F9000 X72.236 Y60.640
G1 F1800 X81.755 Y70.159 E140.98851
G0 F9000 X82.321 Y70.159
G1 F1800 X72.802 Y60.640 E141.66013
G0 F9000 X73.367 Y60.640
G1 F1800 X82.887 Y70.159 E142.33178
G0 F9000 X83.452 Y70.159
G1 F1800 X73.933 Y60.640 E143.00340
G0 F9000 X74.499 Y60.640
G1 F1800 X84.018 Y70.159 E143.67502
G0 F9000 X84.584 Y70.159
G1 F1800 X75.065 Y60.640 E144.34663
G0 F9000 X75.630 Y60.640
G1 F1800 X85.149 Y70.159 E145.01825
G0 F9000 X85.715 Y70.159
G1 F1800 X76.196 Y60.640 E145.68987
G0 F9000 X76.762 Y60.640
G1 F1800 X86.281 Y70.159 E146.36148
G0 F9000 X86.846 Y70.159
G1 F1800 X77.327 Y60.640 E147.03310
G0 F9000 X77.893 Y60.640
G1 F1800 X87.412 Y70.159 E147.70472
G0 F9000 X87.978 Y70.159
G1 F1800 X77.989 Y60.170 E148.40950
G0 F9000 X77.989 Y59.604
G1 F1800 X88.543 Y70.159 E149.15417
G0 F9000 X89.109 Y70.159
G1 F1800 X77.989 Y59.039 E149.93875
G0 F9000 X77.989 Y58.473
G1 F1800 X89.675 Y70.159 E150.76326
G0 F9000 X90.240 Y70.159
G1 F1800 X77.989 Y57.907 E151.62767
G0 F9000 X77.989 Y57.342
G1 F1800 X90.806 Y70.159 E152.53198
G0 F9000 X91.372 Y70.159
G1 F1800 X77.989 Y56.776 E153.47622
G0 F9000 X77.989 Y56.210
G1 F1800 X91.938 Y70.159 E154.46040
G0 F9000 X92.503 Y70.159
G1 F1800 X77.989 Y55.645 E155.48444
G0 F9000 X77.989 Y55.079
G1 F1800 X93.069 Y70.159 E156.54841
G0 F9000 X93.635 Y70.159
G1 F1800 X77.989 Y54.513 E157.65232
G0 F9000 X77.989 Y53.948
G1 F1800 X94.200 Y70.159 E158.79610
G0 F9000 X94.766 Y70.159
G1 F1800 X77.989 Y53.382 E159.97981
G0 F9000 X77.989 Y52.816
G1 F1800 X95.332 Y70.159 E161.20345
G0 F9000 X95.897 Y70.159
G1 F1800 X77.989 Y52.250 E162.46699
G0 F9000 X77.989 Y51.685
G1 F1800 X96.463 Y70.159 E163.77043
G0 F9000 X97.029 Y70.159
G1 F1800 X77.989 Y51.119 E165.11380
G0 F9000 X77.989 Y50.553
G1 F1800 X97.594 Y70.159 E166.49708
G0 F9000 X98.160 Y70.159
G1 F1800 X77.989 Y49.988 E167.92025
G0 F9000 X77.989 Y49.422
G1 F1800 X98.726 Y70.159 E169.38336
G0 F9000 X99.291 Y70.159
G1 F1800 X77.989 Y48.856 E170.88637
G0 F9000 X77.989 Y48.291
G1 F1800 X99.857 Y70.159 E172.42927
G0 F9000 X100.423 Y70.159
G1 F1800 X77.989 Y47.725 E174.01211
G0 F9000 X77.989 Y47.159
G1 F1800 X100.988 Y70.159 E175.63485
G0 F9000 X101.554 Y70.159
G1 F1800 X78.235 Y46.840 E177.28013
G0 F9000 X78.801 Y46.840
G1 F1800 X102.120 Y70.159 E178.92541
G0 F9000 X102.686 Y70.159
G1 F1800 X79.367 Y46.840 E180.57069
G0 F9000 X79.932 Y46.840
G1 F1800 X103.251 Y70.159 E182.21598
G0 F9000 X103.817 Y70.159
G1 F1800 X80.498 Y46.840 E183.86126
G0 F9000 X81.064 Y46.840
G1 F1800 X104.383 Y70.159 E185.50654
G0 F9000 X104.948 Y70.159
G1 F1800 X81.629 Y46.840 E187.15182
G0 F9000 X82.195 Y46.840
G1 F1800 X105.514 Y70.159 E188.79710
G0 F9000 X106.080 Y70.159
G1 F1800 X82.761 Y46.840 E190.44238
G0 F9000 X83.326 Y46.840
G1 F1800 X106.645 Y70.159 E192.08766
G0 F9000 X107.211 Y70.159
G1 F1800 X83.892 Y46.840 E193.73295
G0 F9000 X84.458 Y46.840
G1 F1800 X107.777 Y70.159 E195.37823
G0 F9000 X108.342 Y70.159
G1 F1800 X85.023 Y46.840 E197.02351
G0 F9000 X85.589 Y46.840
G1 F1800 X108.908 Y70.159 E198.66879
G0 F9000 X109.474 Y70.159
G1 F1800 X86.155 Y46.840 E200.31407
G0 F9000 X86.720 Y46.840
G1 F1800 X110.039 Y70.159 E201.95935
G0 F9000 X110.605 Y70.159
G1 F1800 X87.286 Y46.840 E203.60463
G0 F9000 X87.852 Y46.840
G1 F1800 X111.171 Y70.159 E205.24991
G0 F9000 X111.737 Y70.159
G1 F1800 X88.418 Y46.840 E206.89520
G0 F9000 X88.983 Y46.840
G1 F1800 X112.302 Y70.159 E208.54048
G0 F9000 X112.868 Y70.159
G1 F1800 X89.549 Y46.840 E210.18576
G0 F9000 X90.115 Y46.840
G1 F1800 X113.434 Y70.159 E211.83104
G0 F9000 X113.999 Y70.159
G1 F1800 X90.680 Y46.840 E213.47632
G0 F9000 X91.246 Y46.840
G1 F1800 X114.565 Y70.159 E215.12160
G0 F9000 X115.131 Y70.159
G1 F1800 X91.812 Y46.840 E216.76688
G0 F9000 X92.377 Y46.840
G1 F1800 X115.696 Y70.159 E218.41217
G0 F9000 X116.262 Y70.159
G1 F1800 X92.943 Y46.840 E220.05745
G0 F9000 X93.509 Y46.840
G1 F1800 X116.828 Y70.159 E221.70273
G0 F9000 X117.393 Y70.159
G1 F1800 X94.074 Y46.840 E223.34801
G0 F9000 X94.640 Y46.840
G1 F1800 X117.959 Y70.159 E224.99329
G0 F9000 X118.525 Y70.159
G1 F1800 X95.206 Y46.840 E226.63857
G0 F9000 X95.771 Y46.840
G1 F1800 X119.090 Y70.159 E228.28385
G0 F9000 X119.656 Y70.159
G1 F1800 X96.337 Y46.840 E229.92914
G0 F9000 X96.903 Y46.840
G1 F1800 X120.222 Y70.159 E231.57442
G0 F9000 X120.787 Y70.159
G1 F1800 X97.469 Y46.840 E233.21966
G0 F9000 X98.034 Y46.840
G1 F1800 X121.353 Y70.159 E234.86494
G0 F9000 X121.919 Y70.159
