;Generated with Cura_SteamEngine 15.01
; Default start code
G28 ; Home extruder
G90 ; Absolute positioning
M82 ; Extruder in absolute mode
G92 E0 ; Reset extruder position
M109 T0 S200
;Layer count: 5
;LAYER:0
M107
G0 F9000 X34.150 Y57.099 Z0.300
;TYPE:SKIRT
G1 F1800 X74.050 Y57.099 E1.99062
G1 X74.050 Y43.300 E2.67905
G1 X127.050 Y43.300 E5.32323
G1 X127.050 Y57.099 E6.01167
G1 X165.849 Y57.099 E7.94736
G1 X165.849 Y156.700 E12.91647
G1 X34.150 Y156.700 E19.48696
G1 X34.150 Y57.099 E24.45608
G1 F2400 E20.45608
G0 F9000 X37.950 Y60.899
;TYPE:WALL-INNER
G1 F2400 E24.45608
G1 F1800 X77.850 Y60.899 E26.44670
G1 X77.850 Y47.100 E27.13513
G1 X123.250 Y47.100 E29.40015
G1 X123.250 Y60.899 E30.08858
G1 X162.049 Y60.899 E32.02427
G1 X162.049 Y152.900 E36.61422
G1 X37.950 Y152.900 E42.80554
G1 X37.950 Y60.899 E47.39549
G0 F9000 X40.169 Y70.908
G1 F1800 X39.722 Y71.093 E47.41963
G1 X39.339 Y71.388 E47.44375
G1 X39.043 Y71.771 E47.46790
G1 X38.857 Y72.220 E47.49214
G1 X38.795 Y72.699 E47.51624
G1 X38.857 Y73.179 E47.54039
G1 X39.043 Y73.627 E47.56459
G1 X39.338 Y74.011 E47.58875
G1 X39.722 Y74.306 E47.61290
G1 X40.170 Y74.492 E47.63710
G1 X40.650 Y74.554 E47.66125
G1 X41.129 Y74.492 E47.68535
G1 X41.578 Y74.306 E47.70959
G1 X41.961 Y74.010 E47.73374
G1 X42.256 Y73.627 E47.75786
G1 X42.441 Y73.180 E47.78200
G1 X42.505 Y72.699 E47.80621
G1 X42.441 Y72.219 E47.83037
G1 X42.256 Y71.771 E47.85455
G1 X41.961 Y71.388 E47.87867
G1 X41.578 Y71.093 E47.90279
G1 X41.130 Y70.908 E47.92697
G1 X40.650 Y70.844 E47.95113
G1 X40.169 Y70.908 E47.97533
G0 F9000 X40.274 Y71.297
;TYPE:WALL-OUTER
G1 F1800 X39.924 Y71.442 E47.99424
G1 X39.624 Y71.673 E48.01313
G1 X39.392 Y71.973 E48.03205
G1 X39.247 Y72.324 E48.05099
G1 X39.198 Y72.699 E48.06986
G1 X39.247 Y73.075 E48.08878
G1 X39.392 Y73.425 E48.10768
G1 X39.623 Y73.726 E48.12661
G1 X39.924 Y73.957 E48.14554
G1 X40.274 Y74.102 E48.16444
G1 X40.650 Y74.151 E48.18336
G1 X41.025 Y74.102 E48.20222
G1 X41.376 Y73.957 E48.22117
G1 X41.676 Y73.725 E48.24009
G1 X41.907 Y73.425 E48.25898
G1 X42.052 Y73.075 E48.27788
G1 X42.102 Y72.699 E48.29681
G1 X42.052 Y72.324 E48.31568
G1 X41.907 Y71.973 E48.33463
G1 X41.676 Y71.673 E48.35352
G1 X41.376 Y71.442 E48.37241
G1 X41.025 Y71.297 E48.39135
G1 X40.650 Y71.247 E48.41023
G1 X40.274 Y71.297 E48.42915
G0 F9000 X40.159 Y71.020
G0 X37.850 Y60.709
G0 X37.550 Y60.499
G1 F1800 X77.450 Y60.499 E50.41977
G1 X77.450 Y46.700 E51.10821
G1 X123.650 Y46.700 E53.41313
G1 X123.650 Y60.499 E54.10157
G1 X162.449 Y60.499 E56.03726
G1 X162.449 Y153.300 E60.66712
G1 X37.550 Y153.300 E66.89835
G1 X37.550 Y60.499 E71.52822
G0 F9000 X38.128 Y61.038
;TYPE:SKIN
G1 F1800 X129.848 Y152.759 E77.99959
G0 F9000 X129.283 Y152.759
G1 F1800 X38.089 Y61.565 E84.43382
G0 F9000 X38.089 Y62.131
G1 F1800 X128.717 Y152.759 E90.82812
G0 F9000 X128.151 Y152.759
G1 F1800 X38.089 Y62.697 E97.18248
G0 F9000 X38.089 Y63.262
G1 F1800 X127.586 Y152.759 E103.49697
G0 F9000 X127.020 Y152.759
G1 F1800 X38.089 Y63.828 E109.77154
G0 F9000 X38.089 Y64.394
G1 F1800 X126.454 Y152.759 E116.00616
G0 F9000 X125.889 Y152.759
G1 F1800 X38.089 Y64.959 E122.20093
G0 F9000 X38.089 Y65.525
G1 F1800 X125.323 Y152.759 E128.35576
G0 F9000 X124.757 Y152.759
G1 F1800 X38.089 Y66.091 E134.47065
G0 F9000 X38.089 Y66.656
G1 F1800 X124.191 Y152.759 E140.54565
G0 F9000 X123.626 Y152.759
G1 F1800 X38.089 Y67.222 E146.58075
G0 F9000 X38.089 Y67.788
G1 F1800 X41.056 Y70.755 E146.79009
G0 F9000 X40.461 Y70.725
G1 F1800 X38.089 Y68.353 E146.95744
G0 F9000 X38.089 Y68.919
G1 F1800 X39.996 Y70.825 E147.09196
G0 F9000 X39.607 Y71.003
G1 F1800 X38.089 Y69.485 E147.19906
G0 F9000 X38.089 Y70.050
G1 F1800 X39.288 Y71.250 E147.28369
G0 F9000 X39.030 Y71.557
G1 F1800 X38.089 Y70.616 E147.35008
G0 F9000 X38.089 Y71.182
G1 F1800 X38.828 Y71.921 E147.40222
G0 F9000 X38.697 Y72.356
G1 F1800 X38.089 Y71.748 E147.44512
G0 F9000 X38.089 Y72.313
G1 F1800 X38.681 Y72.905 E147.48689
G0 F9000 X38.089 Y72.879
G1 F1800 X38.970 Y73.759 E147.54901
G0 F9000 X39.588 Y74.378
G1 F1800 X117.969 Y152.759 E153.07922
G0 F9000 X117.403 Y152.759
G1 F1800 X38.089 Y73.445 E158.67525
G0 F9000 X38.089 Y74.010
G1 F1800 X116.838 Y152.759 E164.23142
G0 F9000 X116.272 Y152.759
G1 F1800 X38.089 Y74.576 E169.74765
G0 F9000 X38.089 Y75.142
G1 F1800 X115.706 Y152.759 E175.22395
G0 F9000 X115.141 Y152.759
G1 F1800 X38.089 Y75.707 E180.66038
G0 F9000 X38.089 Y76.273
G1 F1800 X114.575 Y152.759 E186.05688
G0 F9000 X114.009 Y152.759
G1 F1800 X38.089 Y76.839 E191.41345
G0 F9000 X38.089 Y77.404
G1 F1800 X113.443 Y152.759 E196.73012
G0 F9000 X112.878 Y152.759
G1 F1800 X38.089 Y77.970 E202.00688
G0 F9000 X38.089 Y78.536
G1 F1800 X112.312 Y152.759 E207.24372
G0 F9000 X111.746 Y152.759
G1 F1800 X38.089 Y79.101 E212.44065
G0 F9000 X38.089 Y79.667
G1 F1800 X111.181 Y152.759 E217.59769
G0 F9000 X110.615 Y152.759
G1 F1800 X38.089 Y80.233 E222.71479
G0 F9000 X38.089 Y80.798
G1 F1800 X110.049 Y152.759 E227.79199
G0 F9000 X109.484 Y152.759
G1 F1800 X38.089 Y81.364 E232.82929
G0 F9000 X38.089 Y81.930
G1 F1800 X108.918 Y152.759 E237.82666
G0 F9000 X108.352 Y152.759
G1 F1800 X38.089 Y82.496 E242.78409
G0 F9000 X38.089 Y83.061
G1 F1800 X107.787 Y152.759 E247.70167
G0 F9000 X107.221 Y152.759
G1 F1800 X38.089 Y83.627 E252.57930
G0 F9000 X38.089 Y84.193
G1 F1800 X106.655 Y152.759 E257.41700
G0 F9000 X106.090 Y152.759
G1 F1800 X38.089 Y84.758 E262.21484
G0 F9000 X38.089 Y85.324
G1 F1800 X105.524 Y152.759 E266.97274
G0 F9000 X104.958 Y152.759
G1 F1800 X38.089 Y85.890 E271.69071
G0 F9000 X38.089 Y86.455
G1 F1800 X104.393 Y152.759 E276.36882
G0 F9000 X103.827 Y152.759
G1 F1800 X38.089 Y87.021 E281.00699
G0 F9000 X38.089 Y87.587
G1 F1800 X103.261 Y152.759 E285.60523
G0 F9000 X102.695 Y152.759
G1 F1800 X38.089 Y88.152 E290.16356
G0 F9000 X38.089 Y88.718
G1 F1800 X102.130 Y152.759 E294.68200
G0 F9000 X101.564 Y152.759
G1 F1800 X38.089 Y89.284 E299.16051
G0 F9000 X38.089 Y89.849
G1 F1800 X100.998 Y152.759 E303.59911
G0 F9000 X100.433 Y152.759
G1 F1800 X38.089 Y90.415 E307.99782
G0 F9000 X38.089 Y90.981
G1 F1800 X99.867 Y152.759 E312.35659
G0 F9000 X99.301 Y152.759
G1 F1800 X38.089 Y91.546 E316.67546
G0 F9000 X38.089 Y92.112
G1 F1800 X98.736 Y152.759 E320.95443
G0 F9000 X98.170 Y152.759
G1 F1800 X38.089 Y92.678 E325.19347
G0 F9000 X38.089 Y93.244
G1 F1800 X97.604 Y152.759 E329.39258
G0 F9000 X97.039 Y152.759
G1 F1800 X38.089 Y93.809 E333.55182
G0 F9000 X38.089 Y94.375
G1 F1800 X96.473 Y152.759 E337.67113
G0 F9000 X95.907 Y152.759
G1 F1800 X38.089 Y94.941 E341.75050
G0 F9000 X38.089 Y95.506
G1 F1800 X95.342 Y152.759 E345.79001
G0 F9000 X94.776 Y152.759
G1 F1800 X38.089 Y96.072 E349.78958
G0 F9000 X38.089 Y96.638
G1 F1800 X94.210 Y152.759 E353.74922
G0 F9000 X93.644 Y152.759
G1 F1800 X38.089 Y97.203 E357.66896
G0 F9000 X38.089 Y97.769
G1 F1800 X93.079 Y152.759 E361.54880
G0 F9000 X92.513 Y152.759
G1 F1800 X38.089 Y98.335 E365.38871
G0 F9000 X38.089 Y98.900
G1 F1800 X91.947 Y152.759 E369.18872
G0 F9000 X91.382 Y152.759
G1 F1800 X38.089 Y99.466 E372.94883
G0 F9000 X38.089 Y100.032
G1 F1800 X90.816 Y152.759 E376.66900
G0 F9000 X90.250 Y152.759
G1 F1800 X38.089 Y100.597 E380.34928
G0 F9000 X38.089 Y101.163
G1 F1800 X89.685 Y152.759 E383.98965
G0 F9000 X89.119 Y152.759
G1 F1800 X38.089 Y101.729 E387.59010
G0 F9000 X38.089 Y102.295
G1 F1800 X88.553 Y152.759 E391.15060
G0 F9000 X87.988 Y152.759
G1 F1800 X38.089 Y102.860 E394.67125
G0 F9000 X38.089 Y103.426
G1 F1800 X87.422 Y152.759 E398.15196
G0 F9000 X86.856 Y152.759
G1 F1800 X38.089 Y103.992 E401.59273
G0 F9000 X38.089 Y104.557
G1 F1800 X86.291 Y152.759 E404.99364
G0 F9000 X85.725 Y152.759
G1 F1800 X38.089 Y105.123 E408.35462
G0 F9000 X38.089 Y105.689
G1 F1800 X85.159 Y152.759 E411.67566
G0 F9000 X84.594 Y152.759
G1 F1800 X38.089 Y106.254 E414.95684
G0 F9000 X38.089 Y106.820
G1 F1800 X84.028 Y152.759 E418.19809
G0 F9000 X83.462 Y152.759
G1 F1800 X38.089 Y107.386 E421.39940
G0 F9000 X38.089 Y107.951
G1 F1800 X82.896 Y152.759 E424.56081
G0 F9000 X82.331 Y152.759
G1 F1800 X38.089 Y108.517 E427.68232
G0 F9000 X38.089 Y109.083
G1 F1800 X81.765 Y152.759 E430.76390
G0 F9000 X81.199 Y152.759
G1 F1800 X38.089 Y109.648 E433.80558
G0 F9000 X38.089 Y110.214
G1 F1800 X80.634 Y152.759 E436.80736
G0 F9000 X80.068 Y152.759
G1 F1800 X38.089 Y110.780 E439.76920
G0 F9000 X38.089 Y111.345
G1 F1800 X79.502 Y152.759 E442.69115
G0 F9000 X78.937 Y152.759
G1 F1800 X38.089 Y111.911 E445.57319
G0 F9000 X38.089 Y112.477
G1 F1800 X78.371 Y152.759 E448.41531
G0 F9000 X77.805 Y152.759
G1 F1800 X38.089 Y113.043 E451.21749
G0 F9000 X38.089 Y113.608
G1 F1800 X77.240 Y152.759 E453.97980
G0 F9000 X76.674 Y152.759
G1 F1800 X38.089 Y114.174 E456.70218
G0 F9000 X38.089 Y114.740
G1 F1800 X76.108 Y152.759 E459.38463
G0 F9000 X75.543 Y152.759
G1 F1800 X38.089 Y115.305 E462.02721
G0 F9000 X38.089 Y115.871
G1 F1800 X74.977 Y152.759 E464.62986
G0 F9000 X74.411 Y152.759
G1 F1800 X38.089 Y116.437 E467.19257
G0 F9000 X38.089 Y117.002
G1 F1800 X73.845 Y152.759 E469.71538
G0 F9000 X73.280 Y152.759
G1 F1800 X38.089 Y117.568 E472.19830
G0 F9000 X38.089 Y118.134
G1 F1800 X72.714 Y152.759 E474.64128
G0 F9000 X72.148 Y152.759
G1 F1800 X38.089 Y118.699 E477.04436
G0 F9000 X38.089 Y119.265
G1 F1800 X71.583 Y152.759 E479.40754
G0 F9000 X71.017 Y152.759
G1 F1800 X38.089 Y119.831 E481.73079
G0 F9000 X38.089 Y120.396
G1 F1800 X70.451 Y152.759 E484.01414
G0 F9000 X69.886 Y152.759
G1 F1800 X38.089 Y120.962 E486.25759
G0 F9000 X38.089 Y121.528
G1 F1800 X69.320 Y152.759 E488.46111
G0 F9000 X68.754 Y152.759
G1 F1800 X38.089 Y122.094 E490.62469
G0 F9000 X38.089 Y122.659
G1 F1800 X68.189 Y152.759 E492.74840
G0 F9000 X67.623 Y152.759
G1 F1800 X38.089 Y123.225 E494.83219
G0 F9000 X38.089 Y123.791
G1 F1800 X67.057 Y152.759 E496.87604
G0 F9000 X66.492 Y152.759
G1 F1800 X38.089 Y124.356 E498.88002
G0 F9000 X38.089 Y124.922
G1 F1800 X65.926 Y152.759 E500.84407
G0 F9000 X65.360 Y152.759
G1 F1800 X38.089 Y125.488 E502.76819
G0 F9000 X38.089 Y126.053
G1 F1800 X64.795 Y152.759 E504.65244
G0 F9000 X64.229 Y152.759
G1 F1800 X38.089 Y126.619 E506.49676
G0 F9000 X38.089 Y127.185
G1 F1800 X63.663 Y152.759 E508.30114
G0 F9000 X63.097 Y152.759
G1 F1800 X38.089 Y127.750 E510.06563
G0 F9000 X38.089 Y128.316
G1 F1800 X62.532 Y152.759 E511.79021
G0 F9000 X61.966 Y152.759
G1 F1800 X38.089 Y128.882 E513.47487
G0 F9000 X38.089 Y129.447
G1 F1800 X61.400 Y152.759 E515.11962
G0 F9000 X60.835 Y152.759
G1 F1800 X38.089 Y130.013 E516.72447
G0 F9000 X38.089 Y130.579
G1 F1800 X60.269 Y152.759 E518.28939
G0 F9000 X59.703 Y152.759
G1 F1800 X38.089 Y131.144 E519.81441
G0 F9000 X38.089 Y131.710
G1 F1800 X59.138 Y152.759 E521.29953
G0 F9000 X58.572 Y152.759
G1 F1800 X38.089 Y132.276 E522.74472
G0 F9000 X38.089 Y132.842
G1 F1800 X58.006 Y152.759 E524.14997
G0 F9000 X57.441 Y152.759
G1 F1800 X38.089 Y133.407 E525.51536
G0 F9000 X38.089 Y133.973
G1 F1800 X56.875 Y152.759 E526.84081
G0 F9000 X56.309 Y152.759
G1 F1800 X38.089 Y134.539 E528.12633
G0 F9000 X38.089 Y135.104
G1 F1800 X55.744 Y152.759 E529.37199
G0 F9000 X55.178 Y152.759
G1 F1800 X38.089 Y135.670 E530.57771
G0 F9000 X38.089 Y136.236
G1 F1800 X54.612 Y152.759 E531.74349
G0 F9000 X54.046 Y152.759
G1 F1800 X38.089 Y136.801 E532.86938
G0 F9000 X38.089 Y137.367
G1 F1800 X53.481 Y152.759 E533.95537
G0 F9000 X52.915 Y152.759
G1 F1800 X38.089 Y137.933 E535.00142
G0 F9000 X38.089 Y138.498
G1 F1800 X52.349 Y152.759 E536.00758
G0 F9000 X51.784 Y152.759
G1 F1800 X38.089 Y139.064 E536.97384
G0 F9000 X38.089 Y139.630
G1 F1800 X51.218 Y152.759 E537.90016
G0 F9000 X50.652 Y152.759
G1 F1800 X38.089 Y140.195 E538.78658
G0 F9000 X38.089 Y140.761
G1 F1800 X50.087 Y152.759 E539.63310
G0 F9000 X49.521 Y152.759
G1 F1800 X38.089 Y141.327 E540.43969
G0 F9000 X38.089 Y141.892
G1 F1800 X48.955 Y152.759 E541.20638
G0 F9000 X48.390 Y152.759
G1 F1800 X38.089 Y142.458 E541.93317
G0 F9000 X38.089 Y143.024
G1 F1800 X47.824 Y152.759 E542.62003
G0 F9000 X47.258 Y152.759
G1 F1800 X38.089 Y143.590 E543.26695
G0 F9000 X38.089 Y144.155
G1 F1800 X46.693 Y152.759 E543.87401
G0 F9000 X46.127 Y152.759
G1 F1800 X38.089 Y144.721 E544.44114
G0 F9000 X38.089 Y145.287
G1 F1800 X45.561 Y152.759 E544.96833
G0 F9000 X44.996 Y152.759
G1 F1800 X38.089 Y145.852 E545.45565
G0 F9000 X38.089 Y146.418
G1 F1800 X44.430 Y152.759 E545.90305
G0 F9000 X43.864 Y152.759
G1 F1800 X38.089 Y146.984 E546.31050
G0 F9000 X38.089 Y147.549
G1 F1800 X43.298 Y152.759 E546.67806
G0 F9000 X42.733 Y152.759
G1 F1800 X38.089 Y148.115 E547.00572
G0 F9000 X38.089 Y148.681
G1 F1800 X42.167 Y152.759 E547.29345
G0 F9000 X41.601 Y152.759
G1 F1800 X38.089 Y149.246 E547.54127
G0 F9000 X38.089 Y149.812
G1 F1800 X41.036 Y152.759 E547.74920
G0 F9000 X40.470 Y152.759
G1 F1800 X38.089 Y150.378 E547.91719
G0 F9000 X38.089 Y150.943
G1 F1800 X39.904 Y152.759 E548.04528
G0 F9000 X39.339 Y152.759
G1 F1800 X38.089 Y151.509 E548.13348
G0 F9000 X38.089 Y152.075
G1 F1800 X38.773 Y152.759 E548.18174
G0 F9000 X38.207 Y152.759
G1 F1800 X38.089 Y152.641 E548.19006
G0 F9000 X40.443 Y74.667
G1 F1800 X118.535 Y152.759 E553.69988
G0 F9000 X119.100 Y152.759
G1 F1800 X40.992 Y74.650 E559.21085
G0 F9000 X41.427 Y74.519
G1 F1800 X119.666 Y152.759 E564.73107
G0 F9000 X120.232 Y152.759
G1 F1800 X41.790 Y74.317 E570.26558
G0 F9000 X42.097 Y74.058
G1 F1800 X120.797 Y152.759 E575.81832
G0 F9000 X121.363 Y152.759
G1 F1800 X42.343 Y73.739 E581.39361
G0 F9000 X42.521 Y73.351
G1 F1800 X121.929 Y152.759 E586.99627
G0 F9000 X122.494 Y152.759
G1 F1800 X42.621 Y72.885 E592.63178
G0 F9000 X42.592 Y72.291
G1 F1800 X123.060 Y152.759 E598.30923
G0 F9000 X130.414 Y152.759
G1 F1800 X38.694 Y61.038 E604.78061
G0 F9000 X39.259 Y61.038
G1 F1800 X130.980 Y152.759 E611.25202
G0 F9000 X131.545 Y152.759
G1 F1800 X39.825 Y61.038 E617.72340
G0 F9000 X40.391 Y61.038
G1 F1800 X132.111 Y152.759 E624.19478
G0 F9000 X132.677 Y152.759
G1 F1800 X40.957 Y61.038 E630.66615
G0 F9000 X41.522 Y61.038
G1 F1800 X133.242 Y152.759 E637.13753
G0 F9000 X133.808 Y152.759
G1 F1800 X42.088 Y61.038 E643.60891
G0 F9000 X42.654 Y61.038
G1 F1800 X134.374 Y152.759 E650.08028
G0 F9000 X134.940 Y152.759
G1 F1800 X43.219 Y61.038 E656.55169
G0 F9000 X43.785 Y61.038
G1 F1800 X135.505 Y152.759 E663.02307
G0 F9000 X136.071 Y152.759
G1 F1800 X44.351 Y61.038 E669.49445
G0 F9000 X44.916 Y61.038
G1 F1800 X136.637 Y152.759 E675.96586
G0 F9000 X137.202 Y152.759
G1 F1800 X45.482 Y61.038 E682.43724
G0 F9000 X46.048 Y61.038
G1 F1800 X137.768 Y152.759 E688.90861
G0 F9000 X138.334 Y152.759
G1 F1800 X46.613 Y61.038 E695.38002
G0 F9000 X47.179 Y61.038
G1 F1800 X138.899 Y152.759 E701.85140
G0 F9000 X139.465 Y152.759
G1 F1800 X47.745 Y61.038 E708.32278
G0 F9000 X48.310 Y61.038
G1 F1800 X140.031 Y152.759 E714.79419
G0 F9000 X140.596 Y152.759
G1 F1800 X48.876 Y61.038 E721.26557
G0 F9000 X49.442 Y61.038
G1 F1800 X141.162 Y152.759 E727.73694
G0 F9000 X141.728 Y152.759
G1 F1800 X50.008 Y61.038 E734.20832
G0 F9000 X50.573 Y61.038
G1 F1800 X142.293 Y152.759 E740.67970
G0 F9000 X142.859 Y152.759
G1 F1800 X51.139 Y61.038 E747.15107
G0 F9000 X51.705 Y61.038
G1 F1800 X143.425 Y152.759 E753.62245
G0 F9000 X143.990 Y152.759
G1 F1800 X52.270 Y61.038 E760.09383
G0 F9000 X52.836 Y61.038
G1 F1800 X144.556 Y152.759 E766.56520
G0 F9000 X145.122 Y152.759
G1 F1800 X53.402 Y61.038 E773.03658
G0 F9000 X53.967 Y61.038
G1 F1800 X145.688 Y152.759 E779.50799
G0 F9000 X146.253 Y152.759
G1 F1800 X54.533 Y61.038 E785.97937
G0 F9000 X55.099 Y61.038
G1 F1800 X146.819 Y152.759 E792.45075
G0 F9000 X147.385 Y152.759
G1 F1800 X55.664 Y61.038 E798.92216
G0 F9000 X56.230 Y61.038
G1 F1800 X147.950 Y152.759 E805.39353
